X: 1
T:The Alderman's Hat
% Nottingham Music Database
S:Playford
M:4/4
L:1/4
K:Gm
P:A
D|"Gm"GB2G|"D7"^Fd2D|"Gm"GB2G|"D7"^FA2D|"Gm"GB2G|"D"^Fg -"Cm"gc|\
"Gm/d"B2 "D7"A2|"Gm"G3:|
P:B
d|"Gm"dg2d|"Gm"gb2d|"F"cf2c|"F"fa2c|"Eb"Be2d/2c/2|"Gm"dg -"Cm"gc|\
"Gm/d"B2 "D7"A2|"Gm"G3:|<end>
<start>
